Pods/ProtonCore-UIFoundations/libraries/UIFoundations/Sources/Assets.xcassets/Images/IconSet/ic-vault.imageset/ic-vault.svg

<svg width="24" height="24" viewBox="0 0 24 24" fill="none" xmlns="http://www.w3.org/2000/svg">
<path fill-rule="evenodd" clip-rule="evenodd" d="M4.5 4.5H21V19.5H4.5V18.75V5.25V4.5ZM3 4.5C3 3.67157 3.67157 3 4.5 3H21C21.8284 3 22.5 3.67157 22.5 4.5V19.5C22.5 20.3284 21.8284 21 21 21H4.5C3.67157 21 3 20.3284 3 19.5H2.25C1.83579 19.5 1.5 19.1642 1.5 18.75C1.5 18.3358 1.83579 18 2.25 18H3V6H2.25C1.83579 6 1.5 5.66421 1.5 5.25C1.5 4.83579 1.83579 4.5 2.25 4.5L3 4.5ZM15 15C16.6569 15 18 13.6569 18 12C18 10.3431 16.6569 9 15 9C13.3431 9 12 10.3431 12 12C12 13.6569 13.3431 15 15 15ZM15 16.5C17.4853 16.5 19.5 14.4853 19.5 12C19.5 9.51472 17.4853 7.5 15 7.5C12.5147 7.5 10.5 9.51472 10.5 12C10.5 14.4853 12.5147 16.5 15 16.5ZM16.5 12C16.5 12.8284 15.8284 13.5 15 13.5C14.1716 13.5 13.5 12.8284 13.5 12C13.5 11.1716 14.1716 10.5 15 10.5C15.8284 10.5 16.5 11.1716 16.5 12ZM8.25 11.7993C8.69835 11.54 9 11.0552 9 10.5C9 9.67157 8.32843 9 7.5 9C6.67157 9 6 9.67157 6 10.5C6 11.0552 6.30165 11.54 6.75 11.7993V14.25C6.75 14.6642 7.08579 15 7.5 15C7.91421 15 8.25 14.6642 8.25 14.25V11.7993Z" fill="#0C0C14"/>
</svg>

<svg xmlns="http://www.w3.org/2000/svg" width="24" height="24" viewBox="0 0 24 24">
  <g class="ic-vault">
    <path fill-rule="evenodd" d="M4.5 4.5H21v15H4.5v-15ZM3 4.5A1.5 1.5 0 0 1 4.5 3H21a1.5 1.5 0 0 1 1.5 1.5v15A1.5 1.5 0 0 1 21 21H4.5A1.5 1.5 0 0 1 3 19.5h-.75a.75.75 0 0 1 0-1.5H3V6h-.75a.75.75 0 0 1 0-1.5H3ZM15 15a3 3 0 1 0 0-6 3 3 0 0 0 0 6Zm0 1.5a4.5 4.5 0 1 0 0-9 4.5 4.5 0 0 0 0 9Zm1.5-4.5a1.5 1.5 0 1 1-3 0 1.5 1.5 0 0 1 3 0Zm-8.25-.2a1.5 1.5 0 1 0-1.5 0v2.45a.75.75 0 0 0 1.5 0V11.8Z" class="Icon"/>
  </g>
</svg>
